modules/hawcons-stroke/icons/icon-4-thumb-up.svg

<?xml version="1.0" encoding="UTF-8" standalone="no"?>
<svg width="32px" height="32px" viewBox="0 0 32 32" version="1.1" xmlns="http://www.w3.org/2000/svg" xmlns:xlink="http://www.w3.org/1999/xlink" xmlns:sketch="http://www.bohemiancoding.com/sketch/ns">
    <!-- Generator: Sketch 3.0.3 (7891) - http://www.bohemiancoding.com/sketch -->
    <title>icon 4 thumb up</title>
    <desc>Created with Sketch.</desc>
    <defs></defs>
    <g id="Page-1" stroke="none" stroke-width="1" fill="none" fill-rule="evenodd" sketch:type="MSPage">
        <g id="icon-4-thumb-up" sketch:type="MSArtboardGroup" fill="#929292">
            <path d="M11,13 L10.5,13 L4.99810135,13 C3.89458045,13 3,13.8900584 3,15.0001062 L3,27.9998938 C3,29.104522 3.88670635,30 4.99810135,30 L10.5,30 L16.2542043,30 L24.4915915,30 C25.8769472,30 27,28.8903379 27,27.5 C27,26.9371898 26.8146659,26.4178169 26.5007444,25.9999838 C27.8818905,25.995109 29,24.8872747 29,23.5 C29,22.864214 28.763488,22.28386 28.3722702,21.8426992 C29.3231922,21.4895043 30,20.5793268 30,19.5 C30,18.864214 29.763488,18.28386 29.3722702,17.8426992 C30.3231922,17.4895043 31,16.5793268 31,15.5 C31,14.1192881 29.8845825,13 28.4915915,13 L22.4997559,13 C23.5490723,7.9831543 23.0463867,1.99999928 19,2 C14.9536133,2.00000073 17.066359,6.78764706 15.5,9.76269531 C13.9336408,12.7377434 11,13 11,13 L11,13 L11,13 Z M4.99077797,14 C4.44358641,14 4,14.4489202 4,15.007484 L4,27.992516 C4,28.5489341 4.45097518,29 4.99077797,29 L10,29 L10,14 L4.99077797,14 L4.99077797,14 Z M7,27 C7.55228478,27 8,26.5522848 8,26 C8,25.4477152 7.55228478,25 7,25 C6.44771522,25 6,25.4477152 6,26 C6,26.5522848 6.44771522,27 7,27 L7,27 L7,27 Z M21.3000031,14 L28.5069036,14 C29.3361142,14 30,14.6715729 30,15.5 C30,16.3342028 29.331518,17 28.5069036,17 L25,17 L25,18 L27.5069036,18 C28.3361142,18 29,18.6715729 29,19.5 C29,20.3342028 28.331518,21 27.5069036,21 L24,21 L24,22 L26.5069036,22 C27.3361142,22 28,22.6715729 28,23.5 C28,24.3342028 27.331518,25 26.5069036,25 L23,25 L23,26 L24.4983244,26 C25.3288106,26 26,26.6715729 26,27.5 C26,28.3342028 25.3276769,29 24.4983244,29 L20.7508378,29 L11,29 C11,29 11,16 11,14 C12.5,14 13.8059878,13 13.8059878,13 C14.7162069,12.4316979 15.7021702,11.5717825 16.3710938,10.3012695 C17.9374527,7.32622128 16.1291504,3.00000043 19,3 C21.9602549,2.99999959 22.4480296,7.8527647 21.501172,12.9999984 C21.5011721,13 21.3000031,14 21.3000031,14 L21.3000031,14 L21.3000031,14 Z" id="thumb-up" sketch:type="MSShapeGroup"></path>
        </g>
    </g>
</svg>

<svg width="32" height="32" viewBox="0 0 32 32" xmlns="http://www.w3.org/2000/svg"><path d="M11 13H4.998C3.895 13 3 13.89 3 15v13c0 1.105.887 2 1.998 2h19.494a2.498 2.498 0 0 0 2.009-4 2.498 2.498 0 0 0 1.871-4.157A2.493 2.493 0 0 0 30 19.5c0-.636-.237-1.216-.628-1.657a2.5 2.5 0 0 0-.88-4.843H22.5c1.05-5.017.546-11-3.5-11s-1.934 4.788-3.5 7.763C13.934 12.738 11 13 11 13zm-6.01 1A.998.998 0 0 0 4 15.007v12.986c0 .556.451 1.007.99 1.007H10V14H4.99zM7 27a1 1 0 1 0 0-2 1 1 0 0 0 0 2zm14.3-13h7.207c.83 0 1.493.672 1.493 1.5 0 .834-.668 1.5-1.493 1.5H25v1h2.507c.83 0 1.493.672 1.493 1.5 0 .834-.668 1.5-1.493 1.5H24v1h2.507c.83 0 1.493.672 1.493 1.5 0 .834-.668 1.5-1.493 1.5H23v1h1.498a1.5 1.5 0 1 1 0 3H11V14c1.5 0 2.806-1 2.806-1 .91-.568 1.896-1.428 2.565-2.699C17.937 7.326 16.13 3 19 3c2.96 0 3.448 4.853 2.501 10l-.201 1z" fill="#929292" fill-rule="evenodd"/></svg>
